X: 27983
T: Mouth Organ, The
R: barndance
M: 4/4
K: Gmajor
GA||B2B2 BAGA|Bdde dBGA|B2BB BAGA|BAAG A2GA|
B2BB BAGA|Bdde dBGA|B2Bc BGAF|G2G2 G2gd||
e2d2 d2gd|e2d2 d2GA|B2Bc BAGA|BAAB A2gd|
e2d2 d[fB]gd|e2d2 dBGA|B2Bc BGAF|G2G2 G2||

